X: 063
T: Mr A Oswald's Jig
C: attr. John French (1753-1803)
R: jig
B: "John French Collection", John French ed. p.6 #3
S: http://www.heallan.com/french.asp
Z: 2012 John Chambers <jc:trillian.mit.edu>
M: 6/8
L: 1/8
K: Em
F |\
(E/F/G)(E B)GE | (D>EF/G/) AFD | (E/F/G)(E B)GE | eBG BGE |\
dfe d^cB | AFA def | geg fdf | eGE E2 :|
|: g |\
(e/f/g)e bge | dfg afd | (e/f/g)(e b)ge | Beg bge |\
dfe d^cB | AFA def | geg fdf | eGE E2 :|

%%sep 2 1 500
%%sep 1 1 500

